_inc/images/systems/logos/supervision.svg

<svg version="1.2" baseProfile="tiny" overflow="visible" viewBox="0 0 264 35" xmlns="http://www.w3.org/2000/svg">
    <path d="M263.94 34.547h-5.714c-5.294-7.195-10.647-14.45-16.121-21.884v21.884h-6.376V.551h5.474c5.354 7.315 10.767 14.69 16.241 22.005.06 0 .12-.06.18-.06V.491H264c-.06 11.392-.06 22.664-.06 34.056ZM101.053.551c.18 0 .3-.06.421-.06 3.97 0 7.94-.06 11.91.06 4.812.18 8.842 4.077 9.443 8.874.541 4.857-2.586 9.533-7.218 10.852-.18.06-.361.12-.601.18 3.248 4.677 6.496 9.293 9.804 14.03h-7.759c-3.128-4.437-6.256-8.934-9.564-13.61v13.61h-6.376c-.06-11.332-.06-22.604-.06-33.936Zm6.436 6.236v7.674c1.684 0 3.308.12 4.872 0a3.682 3.682 0 0 0 3.368-3.777c0-2.038-1.383-3.657-3.368-3.837-1.564-.18-3.188-.06-4.872-.06ZM23.399.491h6.375v.96c0 6.595.061 13.25 0 19.846-.06 3.717 2.767 6.655 6.076 7.134 3.97.54 7.759-2.698 7.819-6.715V.491h6.436v.72c0 6.775-.06 13.55 0 20.325.121 6.835-5.353 12.052-10.526 13.131-9.023 1.859-16.241-5.276-16.241-12.471V.911c.061-.06.061-.18.061-.42Zm62.616 13.85h11.79v6.356h-11.79v7.555h11.79v6.295H79.639V.611h18.166v6.296h-11.79v7.434Zm52.391 8.095L146.165.491h7.158c-3.97 11.392-7.879 22.724-11.789 34.056h-6.436c-3.91-11.272-7.88-22.604-11.85-33.996h7.218c2.587 7.255 5.173 14.57 7.82 21.885h.12Zm-78.195-1.679v13.79h-6.376V.611c.06-.06.18-.12.24-.12 4.09 0 8.181-.12 12.211.06 5.293.24 9.323 4.737 9.323 10.013 0 5.097-3.669 9.413-8.722 10.073-1.624.24-3.308.06-4.932.06-.541.06-1.083.06-1.744.06Zm.18-13.97v7.674c1.684 0 3.308.12 4.872 0a3.684 3.684 0 0 0 3.369-3.777c0-2.038-1.384-3.657-3.369-3.837-1.564-.18-3.188-.06-4.872-.06ZM184.12 3.789c-1.503 1.739-2.526 3.118-3.97 4.617-.18-.3-.842-.78-1.022-1.02-1.203-1.499-2.827-1.918-4.632-1.618-1.804.299-2.947 1.379-3.428 3.117-.361 1.259-.121 2.459.962 3.298.842.66 1.805 1.199 2.767 1.679 1.323.659 2.707 1.199 4.03 1.918 3.91 2.099 5.354 5.816 4.872 9.833-.601 5.217-5.112 9.114-10.406 9.234-3.308.06-6.135-.9-8.421-3.298-.06-.06-.12-.18-.18-.24 0-.06-.782-.539-.842-.659 1.323-1.439 2.406-3.238 3.729-4.677.481.54 1.925 1.919 2.466 2.338 1.985 1.439 4.872 1.08 6.376-.779 1.504-1.919 1.263-4.617-.782-6.235-1.022-.84-2.346-1.38-3.489-2.039-1.563-.899-3.308-1.619-4.691-2.758-3.369-2.818-3.79-7.914-1.263-11.692 4.09-5.876 13.173-6.415 17.924-1.019Zm-164.09-.06c-1.383 1.499-2.225 2.878-3.729 4.797-.241-.36-.842-1.02-1.023-1.259-1.143-1.32-3.248-1.919-5.052-1.32-1.745.54-2.767 1.739-3.008 3.538-.12 1.019.12 2.038.962 2.698.903.66 1.925 1.259 2.888 1.799 1.323.659 2.706 1.199 4.03 1.918 3.669 1.979 5.052 5.217 4.932 9.234-.12 5.216-4.992 9.773-10.466 9.893-3.308.06-6.135-.96-8.481-3.358-.06-.12-1.023-.779-1.083-.899 1.564-1.859 2.226-2.818 3.729-4.677.482.54 2.045 1.979 2.527 2.338 1.924 1.439 4.752 1.14 6.315-.659 1.564-1.739 1.444-4.317-.36-6.056-.843-.779-1.865-1.379-2.828-1.918-1.203-.66-2.526-1.14-3.729-1.799C-.12 15.001-.18 8.226 2.707 4.449c4.21-5.517 12.692-5.996 17.323-.72Zm141.354 30.818h-6.316V.551h6.316v33.996ZM187.85.551h6.316v33.996h-6.316V.551Zm26.526 12.112-13.293 21.884h26.586z" style="fill:#fff"/>
    <path d="M196.812 18.598v.18c.06.78.181 1.619.361 2.399 0 .12.06.179.06.299.06.36.181.66.301 1.02.06.12.12.299.18.419.061.18.121.36.241.6.06.18.18.36.241.54.06.119.06.179.12.299.18.42.361.78.601 1.14.061.059.061.179.121.239.3.54.601 1.08.962 1.559.301.42.602.78.902 1.139l3.549-5.815a10.803 10.803 0 0 1-1.383-5.277c0-.479.06-.959.12-1.439 0-.18.06-.299.06-.479.06-.18.06-.3.121-.48.06-.18.06-.36.12-.54.06-.119.06-.299.12-.419 1.504-4.437 5.835-7.735 10.707-7.735 6.075 0 11.248 5.217 11.248 11.332 0 .48-.06.959-.12 1.439 0 .18-.06.3-.06.48-.061.18-.061.3-.121.479-.06.18-.06.36-.12.54-.06.12-.06.3-.12.42-.181.599-.482 1.139-.782 1.739l3.549 5.815c.3-.359.601-.779.902-1.139 1.323-1.858 2.346-4.017 2.827-6.235.06-.18.06-.36.12-.54 0-.12.06-.3.06-.42.061-.359.121-.719.121-1.079v-.24c.06-.359.06-.779.06-1.139 0-.42 0-.839-.06-1.199v-.18a16.541 16.541 0 0 0-.361-2.398c0-.12-.06-.18-.06-.3-.061-.36-.181-.66-.301-1.019-.06-.12-.12-.3-.181-.42-.06-.18-.12-.36-.24-.6-.06-.179-.181-.359-.241-.539-.06-.12-.06-.18-.12-.3a6.837 6.837 0 0 0-.602-1.139c-.06-.06-.06-.18-.12-.24-.301-.54-.601-1.079-.962-1.559-3.309-4.617-8.662-7.794-14.316-7.674-5.895-.12-11.128 3.177-14.316 7.674-1.323 1.859-2.346 4.017-2.827 6.236-.06.18-.06.359-.12.539 0 .12-.06.3-.06.42-.061.36-.121.719-.121 1.079v.24c-.06.36-.06.779-.06 1.139-.06.36-.06.78 0 1.139Z" style="fill:#fff"/>
</svg>

<?xml version="1.0" encoding="utf-8"?>
<svg version="1.2" baseProfile="tiny" id="Layer_1" x="0px" y="0px" overflow="visible" viewBox="0 0 264 35" xmlns="http://www.w3.org/2000/svg">
  <path d="M 263.94 34.547 C 262.075 34.547 260.211 34.547 258.226 34.547 C 252.932 27.352 247.579 20.097 242.105 12.663 C 242.105 20.097 242.105 27.292 242.105 34.547 C 239.94 34.547 237.895 34.547 235.729 34.547 C 235.729 23.215 235.729 11.943 235.729 0.551 C 237.534 0.551 239.278 0.551 241.203 0.551 C 246.557 7.866 251.97 15.241 257.444 22.556 C 257.504 22.556 257.564 22.496 257.624 22.496 C 257.624 15.181 257.624 7.866 257.624 0.491 C 259.79 0.491 261.835 0.491 264 0.491 C 263.94 11.883 263.94 23.155 263.94 34.547 Z" style="fill: rgb(255, 255, 255);"/>
  <path d="M 101.053 0.551 C 101.233 0.551 101.353 0.491 101.474 0.491 C 105.444 0.491 109.414 0.431 113.384 0.551 C 118.196 0.731 122.226 4.628 122.827 9.425 C 123.368 14.282 120.241 18.958 115.609 20.277 C 115.429 20.337 115.248 20.397 115.008 20.457 C 118.256 25.134 121.504 29.75 124.812 34.487 C 122.165 34.487 119.639 34.487 117.053 34.487 C 113.925 30.05 110.797 25.553 107.489 20.877 C 107.489 25.553 107.489 29.99 107.489 34.487 C 105.323 34.487 103.218 34.487 101.113 34.487 C 101.053 23.155 101.053 11.883 101.053 0.551 Z M 107.489 6.787 C 107.489 9.365 107.489 11.883 107.489 14.461 C 109.173 14.461 110.797 14.581 112.361 14.461 C 114.346 14.282 115.79 12.603 115.729 10.684 C 115.729 8.646 114.346 7.027 112.361 6.847 C 110.797 6.667 109.173 6.787 107.489 6.787 Z" style="fill: rgb(255, 255, 255);"/>
  <path d="M 23.399 0.491 C 25.564 0.491 27.609 0.491 29.774 0.491 C 29.774 0.851 29.774 1.151 29.774 1.451 C 29.774 8.046 29.835 14.701 29.774 21.297 C 29.714 25.014 32.541 27.952 35.85 28.431 C 39.82 28.971 43.609 25.733 43.669 21.716 C 43.669 14.941 43.669 8.226 43.669 1.451 C 43.669 1.151 43.669 0.851 43.669 0.491 C 45.835 0.491 47.94 0.491 50.105 0.491 C 50.105 0.791 50.105 1.031 50.105 1.211 C 50.105 7.986 50.045 14.761 50.105 21.536 C 50.226 28.371 44.752 33.588 39.579 34.667 C 30.556 36.526 23.338 29.391 23.338 22.196 C 23.338 15.121 23.338 7.986 23.338 0.911 C 23.399 0.851 23.399 0.731 23.399 0.491 Z" style="fill: rgb(255, 255, 255);"/>
  <path d="M 86.015 14.341 C 89.985 14.341 93.895 14.341 97.805 14.341 C 97.805 16.44 97.805 18.538 97.805 20.697 C 93.895 20.697 89.985 20.697 86.015 20.697 C 86.015 23.215 86.015 25.673 86.015 28.252 C 89.925 28.252 93.835 28.252 97.805 28.252 C 97.805 30.41 97.805 32.449 97.805 34.547 C 91.79 34.547 85.714 34.547 79.639 34.547 C 79.639 23.275 79.639 11.943 79.639 0.611 C 85.654 0.611 91.729 0.611 97.805 0.611 C 97.805 2.71 97.805 4.748 97.805 6.907 C 93.895 6.907 89.985 6.907 86.015 6.907 C 86.015 9.365 86.015 11.763 86.015 14.341 Z" style="fill: rgb(255, 255, 255);"/>
  <path d="M 138.406 22.436 C 140.993 15.121 143.579 7.806 146.165 0.491 C 148.571 0.491 150.857 0.491 153.323 0.491 C 149.353 11.883 145.444 23.215 141.534 34.547 C 139.368 34.547 137.323 34.547 135.098 34.547 C 131.188 23.275 127.218 11.943 123.248 0.551 C 125.654 0.551 128.06 0.551 130.466 0.551 C 133.053 7.806 135.639 15.121 138.286 22.436 C 138.226 22.436 138.286 22.436 138.406 22.436 Z" style="fill: rgb(255, 255, 255);"/>
  <path d="M 60.211 20.757 C 60.211 25.374 60.211 29.93 60.211 34.547 C 58.045 34.547 56 34.547 53.835 34.547 C 53.835 23.215 53.835 11.883 53.835 0.611 C 53.895 0.551 54.015 0.491 54.075 0.491 C 58.165 0.491 62.256 0.371 66.286 0.551 C 71.579 0.791 75.609 5.288 75.609 10.564 C 75.609 15.661 71.94 19.977 66.887 20.637 C 65.263 20.877 63.579 20.697 61.955 20.697 C 61.414 20.757 60.872 20.757 60.211 20.757 Z M 60.391 6.787 C 60.391 9.365 60.391 11.883 60.391 14.461 C 62.075 14.461 63.699 14.581 65.263 14.461 C 67.248 14.282 68.692 12.603 68.632 10.684 C 68.632 8.646 67.248 7.027 65.263 6.847 C 63.699 6.667 62.075 6.787 60.391 6.787 Z" style="fill: rgb(255, 255, 255);"/>
  <path d="M 184.12 3.789 C 182.617 5.528 181.594 6.907 180.15 8.406 C 179.97 8.106 179.308 7.626 179.128 7.386 C 177.925 5.887 176.301 5.468 174.496 5.768 C 172.692 6.067 171.549 7.147 171.068 8.885 C 170.707 10.144 170.947 11.344 172.03 12.183 C 172.872 12.843 173.835 13.382 174.797 13.862 C 176.12 14.521 177.504 15.061 178.827 15.78 C 182.737 17.879 184.181 21.596 183.699 25.613 C 183.098 30.83 178.587 34.727 173.293 34.847 C 169.985 34.907 167.158 33.947 164.872 31.549 C 164.812 31.489 164.752 31.369 164.692 31.309 C 164.692 31.249 163.91 30.77 163.85 30.65 C 165.173 29.211 166.256 27.412 167.579 25.973 C 168.06 26.513 169.504 27.892 170.045 28.311 C 172.03 29.75 174.917 29.391 176.421 27.532 C 177.925 25.613 177.684 22.915 175.639 21.297 C 174.617 20.457 173.293 19.917 172.15 19.258 C 170.587 18.359 168.842 17.639 167.459 16.5 C 164.09 13.682 163.669 8.586 166.196 4.808 C 170.286 -1.068 179.369 -1.607 184.12 3.789 Z" style="fill: rgb(255, 255, 255);"/>
  <path d="M 20.03 3.729 C 18.647 5.228 17.805 6.607 16.301 8.526 C 16.06 8.166 15.459 7.506 15.278 7.267 C 14.135 5.947 12.03 5.348 10.226 5.947 C 8.481 6.487 7.459 7.686 7.218 9.485 C 7.098 10.504 7.338 11.523 8.18 12.183 C 9.083 12.843 10.105 13.442 11.068 13.982 C 12.391 14.641 13.774 15.181 15.098 15.9 C 18.767 17.879 20.15 21.117 20.03 25.134 C 19.91 30.35 15.038 34.907 9.564 35.027 C 6.256 35.087 3.429 34.067 1.083 31.669 C 1.023 31.549 0.06 30.89 0 30.77 C 1.564 28.911 2.226 27.952 3.729 26.093 C 4.211 26.633 5.774 28.072 6.256 28.431 C 8.18 29.87 11.008 29.571 12.571 27.772 C 14.135 26.033 14.015 23.455 12.211 21.716 C 11.368 20.937 10.346 20.337 9.383 19.798 C 8.18 19.138 6.857 18.658 5.654 17.999 C -0.12 15.001 -0.18 8.226 2.707 4.449 C 6.917 -1.068 15.399 -1.547 20.03 3.729 Z" style="fill: rgb(255, 255, 255);"/>
  <path d="M 161.384 34.547 C 159.278 34.547 157.173 34.547 155.068 34.547 C 155.068 23.215 155.068 11.943 155.068 0.551 C 157.173 0.551 159.278 0.551 161.384 0.551 C 161.384 11.883 161.384 23.155 161.384 34.547 Z" style="fill: rgb(255, 255, 255);"/>
  <path d="M 187.85 0.551 C 189.955 0.551 192.06 0.551 194.166 0.551 C 194.166 11.883 194.166 23.215 194.166 34.547 C 192.06 34.547 189.955 34.547 187.85 34.547 C 187.85 23.155 187.85 11.883 187.85 0.551 Z" style="fill: rgb(255, 255, 255);"/>
  <polygon points="214.376 12.663 201.083 34.547 227.669 34.547" style="fill: rgb(255, 255, 255);"/>
  <path d="M 196.812 18.598 C 196.812 18.658 196.812 18.718 196.812 18.778 C 196.872 19.558 196.993 20.397 197.173 21.177 C 197.173 21.297 197.233 21.356 197.233 21.476 C 197.293 21.836 197.414 22.136 197.534 22.496 C 197.594 22.616 197.654 22.795 197.714 22.915 C 197.775 23.095 197.835 23.275 197.955 23.515 C 198.015 23.695 198.135 23.875 198.196 24.055 C 198.256 24.174 198.256 24.234 198.316 24.354 C 198.496 24.774 198.677 25.134 198.917 25.494 C 198.978 25.553 198.978 25.673 199.038 25.733 C 199.338 26.273 199.639 26.813 200 27.292 L 200 27.292 C 200.301 27.712 200.602 28.072 200.902 28.431 L 204.451 22.616 C 203.549 20.997 203.068 19.198 203.068 17.339 C 203.068 16.86 203.128 16.38 203.188 15.9 C 203.188 15.72 203.248 15.601 203.248 15.421 C 203.308 15.241 203.308 15.121 203.369 14.941 C 203.429 14.761 203.429 14.581 203.489 14.401 C 203.549 14.282 203.549 14.102 203.609 13.982 C 205.113 9.545 209.444 6.247 214.316 6.247 C 220.391 6.247 225.564 11.464 225.564 17.579 C 225.564 18.059 225.504 18.538 225.444 19.018 C 225.444 19.198 225.384 19.318 225.384 19.498 C 225.323 19.678 225.323 19.798 225.263 19.977 C 225.203 20.157 225.203 20.337 225.143 20.517 C 225.083 20.637 225.083 20.817 225.023 20.937 C 224.842 21.536 224.541 22.076 224.241 22.676 L 227.79 28.491 C 228.09 28.132 228.391 27.712 228.692 27.352 L 228.692 27.352 C 230.015 25.494 231.038 23.335 231.519 21.117 C 231.579 20.937 231.579 20.757 231.639 20.577 C 231.639 20.457 231.699 20.277 231.699 20.157 C 231.76 19.798 231.82 19.438 231.82 19.078 C 231.82 19.018 231.82 18.898 231.82 18.838 C 231.88 18.479 231.88 18.059 231.88 17.699 C 231.88 17.699 231.88 17.699 231.88 17.699 C 231.88 17.699 231.88 17.699 231.88 17.699 C 231.88 17.279 231.88 16.86 231.82 16.5 C 231.82 16.44 231.82 16.38 231.82 16.32 C 231.76 15.541 231.639 14.701 231.459 13.922 C 231.459 13.802 231.399 13.742 231.399 13.622 C 231.338 13.262 231.218 12.962 231.098 12.603 C 231.038 12.483 230.978 12.303 230.917 12.183 C 230.857 12.003 230.797 11.823 230.677 11.583 C 230.617 11.404 230.496 11.224 230.436 11.044 C 230.376 10.924 230.376 10.864 230.316 10.744 C 230.135 10.324 229.955 9.965 229.714 9.605 C 229.654 9.545 229.654 9.425 229.594 9.365 C 229.293 8.825 228.993 8.286 228.632 7.806 L 228.632 7.806 C 225.323 3.189 219.97 0.012 214.316 0.132 C 208.421 0.012 203.188 3.309 200 7.806 L 200 7.806 C 198.677 9.665 197.654 11.823 197.173 14.042 C 197.113 14.222 197.113 14.401 197.053 14.581 C 197.053 14.701 196.993 14.881 196.993 15.001 C 196.932 15.361 196.872 15.72 196.872 16.08 C 196.872 16.14 196.872 16.26 196.872 16.32 C 196.812 16.68 196.812 17.099 196.812 17.459 C 196.812 17.459 196.812 17.459 196.812 17.459 C 196.812 17.459 196.812 17.459 196.812 17.459 C 196.752 17.819 196.752 18.239 196.812 18.598 Z" style="fill: rgb(255, 255, 255);"/>
</svg>
